regnskab/static/regnskab/ikonINKA.svg

<?xml version="1.0" encoding="UTF-8"?>
<svg xmlns="http://www.w3.org/2000/svg" version="1.1" viewBox="0 0 847.5 850">
<path style="fill-rule:nonzero;stroke-width:0.125"
d="m 753.075,846.748 c -62.625,-9.91425 -21.35,-93.98875 -81.275,-96.225 -98.65,-11.585 -180.275,-97.0975 -199,-191.625 -1.1375,-52.19125 -61.695,-42.69625 -96.49125,-34.27125 -23.305,38.525 -30.4925,77.76375 -60,113.385 -37.5375,54.2125 -94.9875,103.4325 -159.1125,120.5 -47.12375,3.375 -34.27375,93.62 -94.4675,90.26 -46.3525,-1.06496 -87.6025,-75.0425 -46.1675,-106.2625 28.3475,-27.745 68.975,-15.125 78.745,-69.16875 30.5325,-85.31125 99.57125,-163.125 185.35,-187.15 49.20375,-13.78 72.8675,-59.795 56.06625,-88.9175 C 216.56,387.01175 115.585,306.43175 45.085,213.448 11.61625,173.95675 -6.37125,122.19425 44.38575,87.923 c 31.5275,-33.33375 65.4475,-66.66125 106.665,-87.3125 100.115,63.02875 185.775,155.2625 222.35,269.5625 10.31125,36.8375 21.685,109.92 74.04875,70.5125 14.88625,-46.5825 19.70875,-91.88125 44.49625,-135.2375 49.08625,-86.5125 121.11625,-165.05 214.075,-204.35 53.9675,25.95625 97.50625,71.46375 131.225,120.17125 35.985,43.3375 -34.09375,80.7125 -56.1025,114.84 -65.31375,67.795 -138.1375,122.36875 -225.8875,156.075 -38.515,2.44875 -52.63125,18.43625 -36.39625,54.80375 0.21,48.95875 67.0875,20.51125 95.26125,50.69625 51.54,36.4225 100.6025,82.2425 127.375,139.6125 11,36.48625 3.465,97.555 57.4,87.16 65.425,18.665 45.4125,128.625 -20.225,125.6375 l -25.60625,-3.3535 z m 44.83,-27.56375 C 827.23875,798.343 818.9075,756.3255 786.075,750.86675 719.22,759.15425 731.42125,683.2955 707.40375,642.77925 677.82125,592.8555 640.51625,550.003 591.46625,518.628 555.935,492.753 507.56,523.95425 493.61875,467.64175 481.50875,499.148 453.38,507.378 474.18375,505.613 c 39.8225,18.65375 18.3025,80.73 51.5325,112.82 37.00625,62.785 102.2525,106.8075 176.175,108.0075 54.25125,9.98538 12.50625,99.005 80.27125,95.0525 l 15.74125,-2.309 z M 157.38,732.5155 c 84.375,-46.2775 157.325,-112.265 185.95,-203.7 12.69125,-60.27 93.605,-15.4775 124.18375,-58.205 25.52,-34.575 12.44625,-108.74875 73.50875,-104.66875 63.6825,-17.73375 101.33625,-58.91875 154.05,-97.725 47.2425,-39.99 77.18625,-59.5275 110.15875,-112.28 C 748.71,118.36175 729.285,111.78425 694.71875,52.9355 593.73125,103.36175 538.81875,165.56925 500.74375,272.673 482.35,310.68175 482.27,393.31425 418.8025,384.76425 342.25875,384.06175 387.71625,441.12675 333.39,492.7805 237.5025,534.018 191.74,559.468 145.1025,628.4555 117.72875,668.943 118.1875,741.78925 55.595,747.273 1.7175,777.64675 31.00375,819.678 67.63,817.563 l 11.607875,-8.65675 c 42.858755,-28.845 4.8995,-77.86375 78.122495,-76.3975 z M 358.33,328.503 C 339.53375,237.65175 309.74375,189.9155 244.06375,124.153 210.725,95.6355 197.72875,63.948 157.69625,47.16425 c -35.785,53.2375 -51.985,71.6 -108.44125,103.4125 34.74,87.4875 83.52875,127.5375 162.6,175.6375 44.7725,27.2375 71.3475,36.12625 123.2625,40.31875 22.61375,-14.13 26.8325,-23.26625 23.19375,-38.035" />
</svg>

<?xml version="1.0" encoding="UTF-8"?>
<svg xmlns="http://www.w3.org/2000/svg" version="1.1" viewBox="0 0 847.5 850">
<path d="m753.08 846.75c-62.625-9.9142-21.35-93.989-81.275-96.225-98.65-11.585-180.28-97.098-199-191.62-1.1375-52.191-61.695-42.696-96.491-34.271-23.305 38.525-30.492 77.764-60 113.38-37.538 54.212-94.988 103.43-159.11 120.5-47.124 3.375-34.274 93.62-94.468 90.26-46.352-1.065-87.602-75.042-46.168-106.26 28.348-27.745 68.975-15.125 78.745-69.169 30.532-85.311 99.571-163.12 185.35-187.15 49.204-13.78 72.868-59.795 56.066-88.918-120.16-10.261-221.14-90.841-291.64-183.82-33.469-39.491-51.456-91.254-0.69925-125.52 31.528-33.334 65.448-66.661 106.66-87.312 100.12 63.029 185.78 155.26 222.35 269.56 10.311 36.838 21.685 109.92 74.049 70.512 14.886-46.582 19.709-91.881 44.496-135.24 49.086-86.512 121.12-165.05 214.08-204.35 53.968 25.956 97.506 71.464 131.22 120.17 35.985 43.338-34.094 80.712-56.102 114.84-65.314 67.795-138.14 122.37-225.89 156.08-38.515 2.4488-52.631 18.436-36.396 54.804 0.21 48.959 67.088 20.511 95.261 50.696 51.54 36.422 100.6 82.242 127.38 139.61 11 36.486 3.465 97.555 57.4 87.16 65.425 18.665 45.412 128.62-20.225 125.64l-25.606-3.3535zm44.83-27.564c29.334-20.841 21.002-62.859-11.83-68.318-66.855 8.2875-54.654-67.571-78.671-108.09-29.582-49.924-66.888-92.776-115.94-124.15-35.531-25.875-83.906 5.3262-97.848-50.986-12.11 31.506-40.239 39.736-19.435 37.971 39.822 18.654 18.302 80.73 51.532 112.82 37.006 62.785 102.25 106.81 176.18 108.01 54.251 9.9854 12.506 99.005 80.271 95.052l15.741-2.309zm-640.52-86.669c84.375-46.278 157.32-112.26 185.95-203.7 12.691-60.27 93.605-15.478 124.18-58.205 25.52-34.575 12.446-108.75 73.509-104.67 63.682-17.734 101.34-58.919 154.05-97.725 47.242-39.99 77.186-59.528 110.16-112.28-56.521-37.575-75.946-44.152-110.51-103-100.99 50.426-155.9 112.63-193.98 219.74-18.394 38.009-18.474 120.64-81.941 112.09-76.544-0.7025-31.086 56.362-85.412 108.02-95.888 41.238-141.65 66.688-188.29 135.68-27.374 40.488-26.915 113.33-89.508 118.82-53.878 30.374-24.591 72.405 12.035 70.29l11.608-8.6568c42.859-28.845 4.8995-77.864 78.122-76.398zm200.95-404.01c-18.796-90.851-48.586-138.59-114.27-204.35-33.339-28.518-46.335-60.205-86.368-76.989-35.785 53.238-51.985 71.6-108.44 103.41 34.74 87.488 83.529 127.54 162.6 175.64 44.772 27.238 71.348 36.126 123.26 40.319 22.614-14.13 26.832-23.266 23.194-38.035" stroke-width=".125"/>
</svg>
